X: 7
T: The Dairy Maid
R: reel
M: 4/4
L: 1/8
K: Dmix
dB||AF (3FFF DFAF|AFDE {G}FE E2|AF (3.F.F.F dFAF|EFDE FDDB|
AF {G}(3FEF (3.A.AF dF|AFDE {G}FEEF|G3E F2FF|E2DE {G}FDD2||
d3 e f2 Af|{a}ge{a}fe dB{d}BA|d3e (3fef af|{a}gfeg fdd2|
dfaf g2 ge|{a}(3fef {a}fe dB{d}BA|dfaf fgbg|faeg {fg}fedB||


Tune 1946	Setting 15373

